X: 24004
T: Log Cabin, The
R: reel
M: 4/4
K: Dmixolydian
A,DDE FGAB|=c2 DE FGA^c|d2^cd BdAG|FDA,B, C2B,C|
A,DDE FGAB|=c2 DE FGA^c|d2^cd BdAG|1 FDEF D2DC:|2 FDEF D3A||
|:d2fd adef|gafg eA=cA|d2fd adfd|=cAGE DEFA|
d2fd adfd|cdef g2ag|fgef dBAG|1 FGEF D3A:|2 FGEF D2DC||

